X:12
T:Eye of the Beholder
C:Jim Childress
S:Palmer and Greg Loux, Cameron DeWhitt
S:https://getupinthecool.fireside.fm/49
S:Original: Free Union, © 2014 Jim Childress
S:https://store.cdbaby.com/cd/jimchildress
S:http://jimchildress.weebly.com/free-union.html
Z:abc-transcription Josh Larios <hades@elsewhere.org>, 2017.07.28, 2020.01.20
M:3/4
R:Waltz
G:Key: D
K:D
 |: FE |"D"DF Ad cd | "G"B4 AG | "D"FG AB AF | "A"E4 FE | 
"Bm"DF Ad cd | "G"Bc dB AG | "A"FG AF E"<("">)"F | "D"D4 :|
|: dc | "G"Bc dB AF | "A"E2-EA Bc | "Bm"de fd gf | "A"e4 dc | 
"G"Bc dB de | "D"fd gf ed | "A"ef dc Bc | "D"d4 :|

